X:133
T:Unknown Glasgow Jig 6
Z:robin.beech@mcgill.ca
S:Christina Smith, Victoria Bar, Glasgow
R:jig
M:6/8
L:1/8
K:A
A | Baf e2B | cef ecA | abf eed | B3 bag |
afe fBd | cAF E3 | DFA dBG | EDB, A,2 ::
B, | CEF A2B | c2a afe | Bcf ecA | d2B cAF |
ECE A2B | c2a afe | Bce fea | fec AE :|
